ClientApp/src/assets/img/question-svgrepo-com.svg

<svg  width="24px" height="24px" viewBox="0 0 24 24" fill="none" xmlns="http://www.w3.org/2000/svg">
<path d="M12.75 18.99C12.75 18.5758 12.4142 18.24 12 18.24C11.5858 18.24 11.25 18.5758 11.25 18.99H12.75ZM11.25 19C11.25 19.4142 11.5858 19.75 12 19.75C12.4142 19.75 12.75 19.4142 12.75 19H11.25ZM16 9H15.25L15.25 9.00001L16 9ZM11.2501 16C11.2501 16.4142 11.5858 16.75 12.0001 16.75C12.4143 16.75 12.7501 16.4142 12.7501 16H11.2501ZM7.39971 7.81306C7.29646 8.2142 7.53795 8.62308 7.93909 8.72633C8.34023 8.82957 8.74912 8.58808 8.85237 8.18694L7.39971 7.81306ZM11.25 18.99V19H12.75V18.99H11.25ZM15.25 9.00001C15.25 9.86166 15.0398 10.3068 14.7972 10.6C14.5187 10.9365 14.1505 11.1466 13.6026 11.489C13.0884 11.8103 12.4661 12.2263 11.9958 12.9512C11.5211 13.6832 11.2501 14.6491 11.2501 16H12.7501C12.7501 14.8509 12.979 14.1918 13.2543 13.7675C13.5341 13.3362 13.9117 13.0647 14.3976 12.761C14.8496 12.4784 15.4814 12.126 15.9528 11.5563C16.4602 10.9432 16.75 10.1383 16.75 8.99999L15.25 9.00001ZM12 5.75C13.7949 5.75 15.25 7.20507 15.25 9H16.75C16.75 6.37665 14.6234 4.25 12 4.25V5.75ZM8.85237 8.18694C9.21319 6.78504 10.4867 5.75 12 5.75V4.25C9.78568 4.25 7.92697 5.76451 7.39971 7.81306L8.85237 8.18694Z" fill="#001A72"/>
</svg>

<?xml version="1.0" encoding="utf-8"?>
<!-- Generator: Adobe Illustrator 26.0.2, SVG Export Plug-In . SVG Version: 6.00 Build 0)  -->
<svg version="1.1" id="Слой_1" xmlns="http://www.w3.org/2000/svg" xmlns:xlink="http://www.w3.org/1999/xlink" x="0px" y="0px"
	 viewBox="0 0 24 24" style="enable-background:new 0 0 24 24;" xml:space="preserve">
<style type="text/css">
	.st0{fill:#6675BC;}
</style>
<path class="st0" d="M12.8,19c0-0.4-0.3-0.8-0.8-0.8s-0.8,0.3-0.8,0.8H12.8z M11.2,19c0,0.4,0.3,0.8,0.8,0.8s0.8-0.3,0.8-0.8H11.2z
	 M16,9h-0.8v0L16,9z M11.3,16c0,0.4,0.3,0.7,0.8,0.7c0.4,0,0.8-0.3,0.8-0.7H11.3z M7.4,7.8C7.3,8.2,7.5,8.6,7.9,8.7
	c0.4,0.1,0.8-0.1,0.9-0.5L7.4,7.8z M11.2,19L11.2,19l1.5,0v0H11.2z M15.2,9c0,0.9-0.2,1.3-0.5,1.6c-0.3,0.3-0.6,0.5-1.2,0.9
	c-0.5,0.3-1.1,0.7-1.6,1.5c-0.5,0.7-0.7,1.7-0.7,3h1.5c0-1.1,0.2-1.8,0.5-2.2c0.3-0.4,0.7-0.7,1.1-1c0.5-0.3,1.1-0.6,1.6-1.2
	c0.5-0.6,0.8-1.4,0.8-2.6L15.2,9z M12,5.7c1.8,0,3.2,1.5,3.2,3.3h1.5c0-2.6-2.1-4.8-4.8-4.8V5.7z M8.9,8.2c0.4-1.4,1.6-2.4,3.1-2.4
	V4.2c-2.2,0-4.1,1.5-4.6,3.6L8.9,8.2z"/>
</svg>
